images/icon__share.svg

<svg width="28" height="30" viewBox="0 0 28 30" fill="none" xmlns="http://www.w3.org/2000/svg">
<path d="M22.5664 21.2048C21.4264 21.2048 20.4064 21.6566 19.6264 22.3645L8.93141 16.1145C9.00641 15.7681 9.06641 15.4217 9.06641 15.0602C9.06641 14.6988 9.00641 14.3524 8.93141 14.006L19.5064 7.81627C20.3164 8.56928 21.3814 9.03614 22.5664 9.03614C25.0564 9.03614 27.0664 7.01807 27.0664 4.51807C27.0664 2.01807 25.0564 0 22.5664 0C20.0764 0 18.0664 2.01807 18.0664 4.51807C18.0664 4.87952 18.1264 5.2259 18.2014 5.57229L7.62641 11.762C6.81641 11.009 5.75141 10.5422 4.56641 10.5422C2.07641 10.5422 0.0664062 12.5602 0.0664062 15.0602C0.0664062 17.5602 2.07641 19.5783 4.56641 19.5783C5.75141 19.5783 6.81641 19.1114 7.62641 18.3584L18.3064 24.6235C18.2314 24.9398 18.1864 25.2711 18.1864 25.6024C18.1864 28.0271 20.1514 30 22.5664 30C24.9814 30 26.9464 28.0271 26.9464 25.6024C26.9464 23.1777 24.9814 21.2048 22.5664 21.2048Z" fill="white"/>
</svg>

<svg width="28" height="30" viewBox="0 0 28 30" fill="none" xmlns="http://www.w3.org/2000/svg"><path d="M22.566 21.205c-1.14 0-2.16.452-2.94 1.16l-10.695-6.25a4.95 4.95 0 0 0 .135-1.055c0-.361-.06-.708-.135-1.054l10.575-6.19a4.47 4.47 0 0 0 3.06 1.22c2.49 0 4.5-2.018 4.5-4.518S25.056 0 22.566 0s-4.5 2.018-4.5 4.518c0 .362.06.708.135 1.054l-10.575 6.19a4.47 4.47 0 0 0-3.06-1.22c-2.49 0-4.5 2.018-4.5 4.518s2.01 4.518 4.5 4.518c1.185 0 2.25-.467 3.06-1.22l10.68 6.265c-.075.317-.12.648-.12.98 0 2.424 1.965 4.397 4.38 4.397s4.38-1.973 4.38-4.398c0-2.424-1.965-4.397-4.38-4.397z" fill="#fff"/></svg>
